public/logo.svg

<svg height="50" viewBox="0 0 38 50" fill="none" xmlns="http://www.w3.org/2000/svg">
<path d="M0 4.81489L8.5443 49.1094L5.59612 19.4624L20.1668 18.5125L20.1397 13.5505L25.89 0L20.4038 9.02579L0 4.81489Z" fill="#1366A0"/>
<path d="M23.2993 26.8851L25.89 0.00350952L21.5018 19.9439L11.6552 20.4686L12.4434 30.742L8.54431 49.1094L14.5978 29.0771L23.2993 26.8851Z" fill="#1366A0"/>
<path d="M25.0118 33.2283L25.2875 27.9801L17.2648 29.8654L17.2488 35.7884L8.54431 49.1094L19.4293 35.2441L25.0118 33.2283ZM26.4734 30.8244L33.9247 28.449L34.6823 22.157L26.6998 23.2089L26.4734 30.8244ZM29.6661 21.8412L35.1829 21.1298L35.9767 15.9695L31.9204 15.7822L25.89 0L30.1225 15.5477L29.6661 21.8412Z" fill="#1366A0"/>
<path d="M37.3694 15.2098L38 10.4371L33.2082 9.08453L25.89 0L33.1615 11.265L32.9496 14.7796L37.3694 15.2098Z" fill="#1366A0"/>
</svg>

<svg height="50" viewBox="0 0 38 50" fill="none" xmlns="http://www.w3.org/2000/svg">
  <path d="m0 4.815 8.544 44.294-2.948-29.647 14.57-.95-.026-4.962L25.89 0l-5.486 9.026L0 4.815Z" fill="#1366A0"/>
  <path d="M23.3 26.885 25.89.004l-4.388 19.94-9.847.525.788 10.273-3.899 18.367 6.054-20.032 8.701-2.192Z" fill="#1366A0"/>
  <path d="m25.012 33.228.276-5.248-8.023 1.885-.016 5.923L8.544 49.11 19.43 35.244l5.583-2.016Zm1.461-2.404 7.452-2.375.757-6.292-7.982 1.052-.227 7.615Zm3.193-8.983 5.517-.711.794-5.16-4.057-.188L25.89 0l4.232 15.548-.456 6.293Z" fill="#1366A0"/>
  <path d="m37.37 15.21.63-4.773-4.792-1.352L25.89 0l7.271 11.265-.211 3.515 4.42.43Z" fill="#1366A0"/>
</svg>
